X: 35387
T: Ross River
R: waltz
M: 3/4
K: Eminor
D ED|:GB Bd dG|FB Bd d2|EF GA Bc|A2 d2 ED|
GB Bd dG|FB Bd d2|(3EFG F2- FG|1 E2 zD ED:|2 E2 zA Bc||
|:d2 g2 (3agf|gB d2 Bd|dc ec Ac|cB dc Bc|
d2 g2 (3agf|gB d2 Bd|dc ec (3AGF|G2- G2 Bc:|
|:B2 EF GA|Bd B2- Bc|B2 EF GB|AG F2- FG|
E2 EF GB|AB c2 (3ABc|BG F2- FG|1 E2- EB Bc:|2 E2- E||

